src/icons/svgs/16/linkedin.svg

<svg width="16" height="16" viewBox="0 0 16 16" fill="none" xmlns="http://www.w3.org/2000/svg">
<path d="M13.4037 2H2.52174C2.2236 2 2 2.2236 2 2.52174V13.4783C2 13.7019 2.2236 13.9255 2.52174 13.9255H13.4783C13.7764 13.9255 14 13.7019 14 13.4037V2.52174C13.9255 2.2236 13.7019 2 13.4037 2ZM5.50311 12.1366H3.78882V6.47205H5.57764V12.1366H5.50311ZM4.68323 5.72671C4.08696 5.72671 3.63975 5.20497 3.63975 4.68323C3.63975 4.08696 4.08696 3.63975 4.68323 3.63975C5.2795 3.63975 5.72671 4.08696 5.72671 4.68323C5.65217 5.20497 5.20497 5.72671 4.68323 5.72671ZM12.1366 12.1366H10.3478V9.37888C10.3478 8.70807 10.3478 7.8882 9.45342 7.8882C8.55901 7.8882 8.40994 8.63354 8.40994 9.37888V12.2112H6.62112V6.47205H8.3354V7.21739C8.55901 6.77019 9.15528 6.32298 9.97515 6.32298C11.764 6.32298 12.0621 7.51553 12.0621 9.00621V12.1366H12.1366Z" fill="black"/>
</svg>

<svg width="16" height="16" viewBox="0 0 16 16" xmlns="http://www.w3.org/2000/svg">
    <path d="M13.404 2H2.522A.51.51 0 0 0 2 2.522v10.956c0 .224.224.447.522.447h10.956a.51.51 0 0 0 .522-.521V2.522c-.075-.298-.298-.522-.596-.522zm-7.9 10.137H3.788V6.472h1.789v5.665h-.075zm-.82-6.41c-.597 0-1.044-.522-1.044-1.044 0-.596.447-1.043 1.043-1.043a1.02 1.02 0 0 1 1.044 1.043c-.075.522-.522 1.044-1.044 1.044zm7.453 6.41h-1.79V9.379c0-.67 0-1.49-.894-1.49s-1.043.745-1.043 1.49v2.832H6.62V6.472h1.714v.745c.224-.447.82-.894 1.64-.894 1.789 0 2.087 1.193 2.087 2.683v3.13h.075z"/>
</svg>
